X:82
T:Lord Yarborough’s March. JGi.082
O:Tealby,Lincolnshire
M:C|
L:1/8
Q:1/4=120
S:Joshua Gibbons MS,1823,Tealby,Lincs.
R:march
Z:VMP/R.Greig, 2009
K:D
d2d2f2a2|d2d2f2a2|g2g2f2f2|e>de>fc3e|
e2c>de2fg|a2gf e2|e>fedc2B2|G2G>GG2z1||
e2c>de2e>f|agfe f2A2|.c.d.e.f .g.f.e.d|c2a>aa2z2|
d2B2f2a2|b2b2g2z2|f>ef>g f2e2|d2d>dd2||

